X:1
T:Samuel Tells of the Baby Jesus
T:Samuel Tells of the Baby Jesus
T:Arranged By: Nicole Kirkham
T:Words: Mabel Jones Gabbott Music: Grietje Terburg Rowley 
T:Nicole Kirkham Music
T:Nicole Kirkham Music
T:Nicole Kirkham Music
T:Nicole Kirkham Music
T:Nicole Kirkham Music
C:Music: Grietje Terburg Rowley
Z:Words: Mabel Jones Gabbott
Z:Nicole Kirkham Music
%%score 1 { 2 | 3 }
L:1/8
Q:1/4=114
M:4/4
K:Eb
V:1 treble nm="Voice"
V:2 treble nm="Piano"
V:3 bass 
V:1
"^Moderato" z8 | z8 | z8 | z6 G2 | c2 B2 c3 d | cB G2 G2 G2 | F2 F2 F2 E2 | G6 G2 | c2 B2 G2 F2 | %9
w: |||Said|Sam- u- el, "With-|in * five years a|night will be as|day, And|Ba- by Je- sus|
 GF E2 C2 CD | E2 G2 FE D2 | C6 D2 | E4 E2 F2 | G2 B2 B3 B | c2 B2 G2 B2 | F6 G2 | E2 F2 G2 B2 | %17
w: will * be born in a|land far far * a-|way Ho-|san- na! Ho-|san * na! Oh,|let us glad- ly|sing. How|bles- sed that our|
 c2 B2 G3 B | G2 F2 E2 C2 | E6 z2 | z8 | z8 | z6 G2 | c2 B2 c3 d | cB G2 G2 G2 | F2 F2 F2 E2 | %26
w: Lord was born; Let|earth re- ceive her|King.|||A|vir- gin fair and|beau- * ti- ful was|shown un- to Ne-|
 G6 G2 | c2 B2 G2 F2 | GF E2 C2 CD | E2 G2 FE D2 | C6 z2 | z6 G2 | c2 B2 c3 d | cB G2 G2 G2 | %34
w: phi. The|babe she held the|Son * of God, this *|he did tes- * ti-|fy.|A-|cross the sea in|Beth- * le- hem Lord|
 F2 F2 F2 E2 | G6 G2 | c2 B2 G2 F2 | GF E2 C2 CD | E2 G2 FE D2 | C6 D2 | E4 E2 F2 | G2 B2 B3 B | %42
w: Je- sus came to|Earth. As|Sam- u- el had|pro- * phe- sied, and *|an- gels sang * His|birth. Ho-|san- na! Ho-|san- * na! Oh,|
 c2 B2 G2 B2 | F6 G2 | E2 F2 G2 B2 | c2 B2 G3 B | G2 F2 E2 C2 | E6 z2 | z6[Q:1/4=92]"^Andante" G2 | %49
w: let us glad- ly|sing. How|bles- sed that our|Lord was born; Let|earth re- ceive her|King.|He|
 c2 B2 c3 d | cB G2 G2 G2 | F2 F2 F2 E2 | G6 G2 | c2 B2 G2 F2 | GF E2 C2 CD | E2 G2 FE D2 | C6 z2 | %57
w: would work mir- a-|cles * on earth and|suf- fer grief and|pain. If|we re- pent and|live * like Him we'll *|be saved through * His|name.|
[Q:1/4=114]"^Moderato" z6 D2 | E4 E2 F2 | G2 B2 B3 B | c2 B2 G2 B2 | F6 G2 | E2 F2 G2 B2 | %63
w: Ho-|san- na! Ho-|san- * na! Oh|let us glad- ly|sing. How|bles- sed that our|
 c2 B2 !fermata!G3[Q:1/4=71]"^Adagio" G | e2 d2 c2 B2 | c2 B2 !fermata!G3 B | G2 F2 E2 C2 | E8 | %68
w: Lord was born. The|world changed when our|Lord was born; let|earth re- ceive her|King!|
 z8 | z8 | z8 |] %71
w: |||
V:2
 z4 [ec']2 [Bg]2 | z4 [Bg]2 [Ec]2 | [CG]4 C3 B, | C6 G2 | [EGc]8 | [Acf]8 | [Acf]8 | [EGc]8 | %8
w: ||||||||
 c2 BA G2 F2 | GFED C2 CD | EF G2 FE D2 | C6 D2 | E4 E4 | GA B2 B3 B | c2 B2 GA B2 | F6 G2 | %16
w: ||||||||
 E4 GA B2 | [Ec]4 [EG]4 | [CG]8 | z4 [ec']2 [Bg]2 | z4 [Bg]2 [Ec]2 | [CG]4 C3 B, | C3 G, C4 | %23
w: |||||||
 [EGc]8 | [EGc]8 | [Acf]8 | [EGc]8 | [Ec]4 [DG]4 | [CG]4 [G,C]4 | [F,A,E]8 | C4 [ec']2 [Bg]2 | %31
w: ||||||||
 [EGc]6!8va(! g2 | [egc']8 | [egc']8 | [ac'f']8 | [egc']8 | [ec']4 [dg]4 | [cg]4 [Ec]4 | [FAe]8 | %39
w: ||||||||
 c6!8va)! D2 | E4 E4 | GA B2 B4 | c4 GA B2 | F6 G2 | E4 GA B2 | [Ec]4 [EG]4 | [CG]8 | %47
w: ||||||||
 E4 [ec']2 [Bg]2 | [EGc]6!8va(! g2 | [egc']8 | [egc']8 | [ac'f']8 | [egc']8 | c'2 ba g2 f2 | %54
w: |||||||
 gfed c2 cd | ef g2 fe d2 | c8 | [FA]2 [Gc]2 [fa]2 d2 | e4 e4 | ga b2 b4 | c'2 b2 ga b2 | f6 g2 | %62
w: ||||||||
 e4 ga b2 | [ec']4 !fermata![eg]4 | e4 ga b2 | [ec']4 !fermata![eg]4 | [cg]8 | %67
w: rit. * * *|||rit. *||
 z4!8va)! [ec']2 [Bg]2 | z4 [Bg]2 [Ec]2 | [CG]4 C3 B, | E4 !arpeggio![EBe]4 |] %71
w: ||||
V:3
 C,,G,, C,6 | C,G, C6 | A,,2 E,6 | C,,2 G,,2 C,4 | C,2 G,2 C4 | C,2 A,2 C4 | C,2 A,2 C4 | %7
 C,,2 G,,2 C,4 | C,4 B,,4 | A,,4 G,,4 | F,,4 G,,4 | A,,2 E,2 A,2 z2 | [E,G,]4 [D,G,]4 | C,4 B,,4 | %14
 A,,8 | A,2 C2 B,4 | A,,2 E,2 B,4 | A,2 B,2 C4 | A,,2 E,2 A,4 | C,,G,, C,6 | C,G, C6 | A,,2 E,6 | %22
 C,,G,, C,6 | C,2 G,2 C4 | C,2 G,2 C4 | C,2 A,2 C4 | C,,2 G,,2 C,4 | C,4 B,,4 | A,,4 G,,4 | %29
 F,,2 A,,2 G,,4 | C,,G,, C,6 | C,2 G,2 C2 z2 | C,2 G,2 C4 | C,2 G,2 C4 | C,2 A,2 C4 | %35
 C,,2 G,,2 C,4 | C,4 B,,4 | A,,4 G,,4 | F,,4 G,,4 | A,,2 E,2 A,2 z2 | E,,4 D,,4 | C,,4 B,,,4 | %42
 A,,,8 | A,,2 C,2 B,,4 | A,,,2 E,,2 B,,4 | A,,2 B,,2 C,4 | A,,2 E,2 A,4 | C,,G,, C,6 | %48
 C,2 G,2 C2 z2 | C,2 G,2 C4 | C,2 G,2 C4 | C,2 A,2 C4 | C,,2 G,,2 C,4 | C,4 B,,4 | A,,4 G,,4 | %55
 F,,4 G,,4 | A,,2 E,2 A,4 | A,,,2 E,,2 A,,2 z2 | [E,G,]4 [D,G,]4 | C,4 B,,4 | A,,8 | A,2 C2 B,4 | %62
 A,,2 E,2 B,4 | A,2 B,2 C4 | A,,2 E,2 B,4 | A,2 B,2 C4 | A,,2 E,2 A,4 | C,,G,, C,6 | C,G, C6 | %69
 A,,2 E,6 | [E,,E,]2 B,,2 z4 |] %71

